Yaru++/actions/16/snap-extension.svg

<svg viewBox="0 0 24 24" xmlns="http://www.w3.org/2000/svg"><path d="m5 4v7h-1v3h1v6h1v-6h1v-3h-1v-7zm7 7v3h3v-1h5v-1h-5v-1zm-4 1v1h1v-1zm2 0v1h1v-1z" fill="#808080"/></svg>

<svg xmlns="http://www.w3.org/2000/svg" viewBox="0 0 24 24">
 <defs>
  <style id="current-color-scheme" type="text/css">
   .ColorScheme-Text { color:#808080; }
  </style>
 </defs>
 <path style="fill:currentColor" class="ColorScheme-Text" d="M 5 4 L 5 11 L 4 11 L 4 14 L 5 14 L 5 20 L 6 20 L 6 14 L 7 14 L 7 11 L 6 11 L 6 4 L 5 4 z M 12 11 L 12 14 L 15 14 L 15 13 L 20 13 L 20 12 L 15 12 L 15 11 L 12 11 z M 8 12 L 8 13 L 9 13 L 9 12 L 8 12 z M 10 12 L 10 13 L 11 13 L 11 12 L 10 12 z"/>
</svg>
